Lila_HD/apps/scalable/xojo.svg

<?xml version="1.0" encoding="UTF-8" standalone="no"?>
<!-- Created with Inkscape (http://www.inkscape.org/) -->

<svg
   xmlns:dc="http://purl.org/dc/elements/1.1/"
   xmlns:cc="http://creativecommons.org/ns#"
   xmlns:rdf="http://www.w3.org/1999/02/22-rdf-syntax-ns#"
   xmlns:svg="http://www.w3.org/2000/svg"
   xmlns="http://www.w3.org/2000/svg"
   xmlns:xlink="http://www.w3.org/1999/xlink"
   xmlns:sodipodi="http://sodipodi.sourceforge.net/DTD/sodipodi-0.dtd"
   xmlns:inkscape="http://www.inkscape.org/namespaces/inkscape"
   width="96"
   height="96"
   id="svg13094"
   version="1.1"
   inkscape:version="0.92.2 5c3e80d, 2017-08-06"
   sodipodi:docname="xojo.svg">
  <sodipodi:namedview
     id="base"
     pagecolor="#ffffff"
     bordercolor="#666666"
     borderopacity="1.0"
     inkscape:pageopacity="0"
     inkscape:pageshadow="2"
     inkscape:zoom="1.5507813"
     inkscape:cx="21.624211"
     inkscape:cy="30.462681"
     inkscape:document-units="px"
     inkscape:current-layer="svg13094"
     showgrid="false"
     inkscape:snap-bbox="true"
     inkscape:bbox-paths="true"
     inkscape:bbox-nodes="true"
     inkscape:snap-bbox-edge-midpoints="true"
     inkscape:snap-bbox-midpoints="true"
     inkscape:object-paths="true"
     inkscape:snap-intersection-paths="true"
     inkscape:object-nodes="true"
     inkscape:snap-smooth-nodes="true"
     inkscape:snap-midpoints="true"
     inkscape:snap-object-midpoints="true"
     inkscape:snap-center="true"
     showguides="true"
     inkscape:guide-bbox="true"
     inkscape:window-width="1280"
     inkscape:window-height="972"
     inkscape:window-x="0"
     inkscape:window-y="23"
     inkscape:window-maximized="1"
     inkscape:snap-global="false"
     fit-margin-top="0"
     fit-margin-left="0"
     fit-margin-right="0"
     fit-margin-bottom="0"
     showborder="true"
     inkscape:showpageshadow="false"
     inkscape:snap-page="true">
    <inkscape:grid
       type="xygrid"
       id="grid3075"
       empspacing="5"
       visible="true"
       enabled="true"
       snapvisiblegridlinesonly="true"
       originx="0"
       originy="18"
       spacingx="1"
       spacingy="1" />
  </sodipodi:namedview>
  <defs
     id="defs13096">
    <linearGradient
       inkscape:collect="always"
       xlink:href="#linearGradient6139-0"
       id="linearGradient4071"
       gradientUnits="userSpaceOnUse"
       gradientTransform="matrix(1.1048363,0,0,1.104836,-5.0321443,-3.927291)"
       x1="6"
       y1="47.000011"
       x2="90"
       y2="47.000011" />
    <linearGradient
       id="linearGradient6139-0">
      <stop
         id="stop6141-2"
         offset="0"
         style="stop-color:#b2babc;stop-opacity:1" />
      <stop
         style="stop-color:#ffffff;stop-opacity:1;"
         offset="0.25"
         id="stop6151-0" />
      <stop
         style="stop-color:#96a1a4;stop-opacity:1"
         offset="0.5"
         id="stop6147-1" />
      <stop
         id="stop6149-4"
         offset="0.75"
         style="stop-color:#fbf9f9;stop-opacity:1;" />
      <stop
         id="stop6143-4"
         offset="1"
         style="stop-color:#b2b9bc;stop-opacity:1" />
    </linearGradient>
    <linearGradient
       gradientTransform="matrix(0.99791668,0,0,0.99791665,0.09999748,0.10001522)"
       inkscape:collect="always"
       xlink:href="#linearGradient3832-0-6-1-1"
       id="linearGradient4129"
       x1="1.5"
       y1="88.171875"
       x2="94.5"
       y2="88.171875"
       gradientUnits="userSpaceOnUse" />
    <linearGradient
       id="linearGradient3832-0-6-1-1">
      <stop
         style="stop-color:#000000;stop-opacity:1;"
         offset="0"
         id="stop3834-6-3-7-1" />
      <stop
         id="stop3872-2-4"
         offset="0.1"
         style="stop-color:#000000;stop-opacity:0.58823532;" />
      <stop
         style="stop-color:#000000;stop-opacity:0.58823532;"
         offset="0.89999998"
         id="stop3844-6-2-7-6" />
      <stop
         style="stop-color:#000000;stop-opacity:1;"
         offset="1"
         id="stop3836-5-0-2-9" />
    </linearGradient>
    <radialGradient
       inkscape:collect="always"
       xlink:href="#linearGradient3737"
       id="radialGradient7462"
       gradientUnits="userSpaceOnUse"
       gradientTransform="matrix(0.97310226,0,0,0.04908824,33.928071,80.099696)"
       cx="13.948145"
       cy="44.892841"
       fx="13.948145"
       fy="44.892841"
       r="43.199203" />
    <linearGradient
       id="linearGradient3737">
      <stop
         offset="0"
         style="stop-color:#ffffff;stop-opacity:1"
         id="stop3739" />
      <stop
         offset="1"
         style="stop-color:#ffffff;stop-opacity:0"
         id="stop3741" />
    </linearGradient>
    <radialGradient
       inkscape:collect="always"
       xlink:href="#linearGradient3737"
       id="radialGradient7464"
       gradientUnits="userSpaceOnUse"
       gradientTransform="matrix(0.88647594,0,0,0.04908824,31.578789,-90.080455)"
       cx="13.948145"
       cy="44.892841"
       fx="13.948145"
       fy="44.892841"
       r="43.199203" />
    <linearGradient
       inkscape:collect="always"
       xlink:href="#linearGradient3737"
       id="linearGradient4767"
       gradientUnits="userSpaceOnUse"
       x1="2.7713892"
       y1="-28.64156"
       x2="50.527882"
       y2="14.514202" />
    <clipPath
       id="clipPath4156-4-1"
       clipPathUnits="userSpaceOnUse">
      <path
         inkscape:connector-curvature="0"
         id="path4158-0-8"
         d="m 27.046336,-55.695463 -14.21366,13.321486 h 0.06127 l 15.653407,21.770763 10.231384,-10.546177 C 38.561832,-32.30156 27.468089,-54.819245 27.046336,-55.695463 Z M 9.6468554,-39.382809 -5.2407289,-25.32124 15.987863,-7.8059573 26.372412,-18.382966 Z m 31.4906096,12.951445 -9.741259,9.713584 8.944804,12.4580526 7.780753,-7.5550056 z m -49.8397109,4.378822 -13.7541661,12.9822847 26.2830181,13.84571 0.06127,-0.0617 -0.122531,-0.0617 L 13.598503,-5.4007374 -8.7022409,-22.052595 Z m 38.0154159,7.400825 -9.802525,9.7752596 11.579232,9.5594001 7.62759,-7.40083 -8.669108,-11.0087257 z m 20.187073,5.6739697 -7.382526,7.2158 6.187844,8.54179 5.820249,-6.13651996 z m -32.195166,6.32154 -9.5574606,9.49772 13.6622686,7.1849703 7.933918,-7.6783603 z m 23.311629,2.37443004 -7.10683,6.93826996 8.362778,6.9074403 5.360756,-5.6739699 -0.06127,-0.0925 -0.0919,0.12335 -6.463539,-8.20258036 z m -8.730374,8.54178036 -7.505057,7.3391599 10.353916,5.45811 c 1.397496,-1.32103 5.67514,-6.12292 5.850882,-6.32154 z"
         style="opacity:0.6;fill:#ffffff;fill-opacity:1;stroke:none" />
    </clipPath>
    <linearGradient
       id="ButtonShadow-16"
       gradientTransform="scale(1.0058652,0.994169)"
       x1="45.447727"
       y1="92.539597"
       x2="45.447727"
       y2="7.0165396"
       gradientUnits="userSpaceOnUse">
      <stop
         style="stop-color:#000000;stop-opacity:1;"
         offset="0"
         id="stop3750-6" />
      <stop
         style="stop-color:#000000;stop-opacity:0.58823532;"
         offset="1"
         id="stop3752-4" />
    </linearGradient>
    <clipPath
       clipPathUnits="userSpaceOnUse"
       id="clipPath4355-7">
      <rect
         style="fill:#ffffff;fill-opacity:1;fill-rule:nonzero;stroke:none"
         id="rect4357-5"
         width="84"
         height="80"
         x="6"
         y="6"
         rx="6"
         ry="6" />
    </clipPath>
    <clipPath
       clipPathUnits="userSpaceOnUse"
       id="clipPath4355-9">
      <rect
         style="fill:#ffffff;fill-opacity:1;fill-rule:nonzero;stroke:none"
         id="rect4357-1"
         width="84"
         height="80"
         x="6"
         y="6"
         rx="6"
         ry="6" />
    </clipPath>
    <clipPath
       clipPathUnits="userSpaceOnUse"
       id="clipPath4355-1">
      <rect
         style="fill:#ffffff;fill-opacity:1;fill-rule:nonzero;stroke:none"
         id="rect4357-9"
         width="84"
         height="80"
         x="6"
         y="6"
         rx="6"
         ry="6" />
    </clipPath>
    <clipPath
       clipPathUnits="userSpaceOnUse"
       id="clipPath3943-52-0">
      <path
         id="path3945-4-1"
         d="m 69.78125,20.84375 -5,3.4375 c 5.586891,5.537137 9,13.327613 9,21.8125 0,8.434478 -3.37723,16.095981 -8.90625,21.625 l 5,3.4375 C 76.078226,64.5762 80,55.843726 80,46.09375 c 2e-6,-9.796556 -3.962955,-18.660417 -10.21875,-25.25 z M 40,24.0625 28.90625,36.21875 H 21.5 c -0.823281,0 -1.5,0.676717 -1.5,1.5 v 1 14.84375 1 c 0,0.823281 0.684121,1.610161 1.5,1.5 h 7.40625 L 40,68 V 66 26.0625 Z m 20.59375,3.28125 -5,3.4375 L 55.5,30.875 c 3.93815,3.890071 6.40625,9.25018 6.40625,15.21875 0,5.920869 -2.42961,11.148358 -6.3125,15.03125 l 0.09375,0.09375 5.09375,3.4375 c 4.475428,-4.908367 7.25,-11.402005 7.25,-18.5625 0,-7.230696 -2.87904,-13.83107 -7.4375,-18.75 z m -9.25,6.5 -5.21875,3.625 c 2.222384,2.217802 3.71875,5.239596 3.71875,8.625 0,3.336509 -1.458847,6.227712 -3.625,8.4375 l 5.21875,3.625 c 2.822412,-3.236947 4.53125,-7.43414 4.53125,-12.0625 0,-4.672601 -1.754155,-9.001351 -4.625,-12.25 z"
         style="color:#000000;display:inline;overflow:visible;visibility:visible;opacity:0.8;fill:#ff00ff;fill-opacity:1;fill-rule:nonzero;stroke:none;stroke-width:1;marker:none;enable-background:accumulate"
         inkscape:connector-curvature="0" />
    </clipPath>
  </defs>
  <metadata
     id="metadata13099">
    <rdf:RDF>
      <cc:Work
         rdf:about="">
        <dc:format>image/svg+xml</dc:format>
        <dc:type
           rdf:resource="http://purl.org/dc/dcmitype/StillImage" />
        <dc:title />
      </cc:Work>
    </rdf:RDF>
  </metadata>
  <g
     id="g3043"
     inkscape:export-filename="folder.png"
     inkscape:export-xdpi="90"
     inkscape:export-ydpi="90"
     transform="translate(-0.625,0.082283)" />
  <g
     id="scalable"
     transform="matrix(1.0385892,0,0,1.0385892,1214.7222,1878.8121)"
     inkscape:label="#g3701"
     style="fill:#ffffff" />
  <path
     style="display:inline;opacity:0.15;fill:#000000;fill-opacity:1;fill-rule:nonzero;stroke:none;stroke-width:0.9979167"
     d="M 89.057141,0.10001522 H 6.9428495 c -3.7909339,0 -6.84284962,3.05191248 -6.84284962,6.84285418 V 89.057157 c 0,3.790942 3.05191572,6.842857 6.84284962,6.842857 H 89.057141 c 3.790942,0 6.842861,-3.051915 6.842861,-6.842857 V 6.9428694 c 0,-3.7909417 -3.051919,-6.84285418 -6.842861,-6.84285418 z"
     id="path3288"
     inkscape:connector-curvature="0" />
  <path
     inkscape:connector-curvature="0"
     id="path4085"
     d="M 88.415625,0.84845271 H 7.5843662 c -3.7317015,0 -6.73593061,3.00422609 -6.73593061,6.73593339 V 88.415639 c 0,3.731709 3.00422911,6.735937 6.73593061,6.735937 H 88.415625 c 3.731711,0 6.735939,-3.004228 6.735939,-6.735937 V 7.5843861 c 0,-3.7317073 -3.004228,-6.73593339 -6.735939,-6.73593339 z"
     style="display:inline;opacity:0.15;fill:#000000;fill-opacity:1;fill-rule:nonzero;stroke:none;stroke-width:0.9979167" />
  <path
     style="display:inline;fill:url(#linearGradient4071);fill-opacity:1;fill-rule:nonzero;stroke:none;stroke-width:0.9979167"
     d="M 87.774102,1.5968902 H 8.2258909 c -3.6724761,0 -6.6290174,2.9565416 -6.6290174,6.6290146 V 87.774122 c 0,3.672477 2.9565413,6.629017 6.6290174,6.629017 H 87.774102 c 3.672477,0 6.629015,-2.956542 6.629015,-6.629017 V 8.2259048 c 0,-3.672473 -2.956538,-6.6290146 -6.629015,-6.6290146 z"
     id="rect4251-1"
     inkscape:connector-curvature="0" />
  <path
     style="display:inline;opacity:0.98000004;fill:#bef3be;fill-opacity:1;fill-rule:nonzero;stroke:none;stroke-width:1.03348196"
     d="m 11.317872,6.4738506 c -2.8505457,0 -5.1134535,2.3109175 -5.1134535,5.2219364 v 21.638389 7.310708 40.306809 c 1.0949541,1.701075 2.9626636,2.839426 5.1134535,2.839426 h 4.090763 65.452205 5.656974 c 2.150792,0 2.452289,0.0363 3.547243,-1.664766 V 40.644884 33.334176 11.695787 c 0,-2.9110189 -2.262908,-5.2219364 -5.113455,-5.2219364 z"
     id="path3400-6"
     inkscape:connector-curvature="0"
     sodipodi:nodetypes="sscccsccscccsss" />
  <path
     inkscape:connector-curvature="0"
     id="path4989"
     d="m 9.9046094,4.8196221 c -3.1101282,0 -5.656157,2.5342193 -5.656157,5.6342429 v 69.133666 c 0,3.100022 2.5460288,5.634242 5.656157,5.634242 H 86.536412 c 3.110129,0 5.65616,-2.53422 5.65616,-5.634242 V 10.453865 c 0,-3.1000216 -2.546031,-5.6342429 -5.65616,-5.6342429 z m 0,2.3146078 H 86.536412 c 1.884166,0 3.345038,1.4770104 3.345038,3.3196351 v 69.133666 c 0,1.842627 -1.460872,3.319632 -3.345038,3.319632 H 9.9046094 c -1.8841656,0 -3.3450388,-1.477005 -3.3450388,-3.319632 V 10.453865 c 0,-1.8426247 1.4608732,-3.3196351 3.3450388,-3.3196351 z"
     style="color:#000000;font-style:normal;font-variant:normal;font-weight:normal;font-stretch:normal;font-size:medium;line-height:normal;font-family:Sans;-inkscape-font-specification:Sans;text-indent:0;text-align:start;text-decoration:none;text-decoration-line:none;letter-spacing:normal;word-spacing:normal;text-transform:none;writing-mode:lr-tb;direction:ltr;baseline-shift:baseline;text-anchor:start;display:inline;overflow:visible;visibility:visible;fill:#212222;fill-opacity:0.92718446;stroke:none;stroke-width:2.37055135;marker:none;enable-background:accumulate" />
  <path
     inkscape:connector-curvature="0"
     style="display:inline;opacity:0.65818182;fill:url(#linearGradient4129);fill-opacity:1;fill-rule:nonzero;stroke:none;stroke-width:0.9979167"
     d="m 1.5968725,81.773256 v 5.9875 c 0,3.672475 2.9699064,6.642383 6.6423825,6.642383 H 87.76074 c 3.672477,0 6.642387,-2.969908 6.642387,-6.642383 v -5.9875 c 0,3.672475 -2.96991,6.642383 -6.642387,6.642383 H 8.239255 c -3.6724761,0 -6.6423825,-2.969908 -6.6423825,-6.642383 z"
     id="path4118" />
  <rect
     style="opacity:0.55;fill:url(#radialGradient7462);fill-opacity:1;stroke:none;stroke-width:0.9979167"
     id="rect4131"
     width="84.074486"
     height="4.2411456"
     x="5.4638"
     y="80.182831"
     rx="0"
     ry="4.2411456" />
  <rect
     ry="4.2411461"
     rx="0"
     y="-89.99733"
     x="5.6484313"
     height="4.2411461"
     width="76.590103"
     id="rect4141"
     style="opacity:0.669;fill:url(#radialGradient7464);fill-opacity:1;stroke:none;stroke-width:0.9979167"
     transform="rotate(90)" />
  <g
     transform="matrix(1.4205454,0,0,1.4205454,2.5425472,-2.2985436)"
     id="g919">
    <path
       inkscape:connector-curvature="0"
       id="rect3014"
       d="m 32,11 c -5.811063,0 -11.107484,2.196248 -15.15625,5.71875 l 12.3125,12.34375 c 1.566948,1.566949 4.120551,1.566949 5.6875,0 L 47.15625,16.71875 C 43.107484,13.196248 37.811063,11 32,11 Z M 14.71875,18.84375 C 11.196248,22.892516 9,28.188937 9,34 c 0,5.811063 2.196248,11.107484 5.71875,15.15625 L 27.0625,36.84375 c 1.566948,-1.566949 1.566948,-4.120552 0,-5.6875 z m 34.5625,0 -12.34375,12.3125 c -1.566948,1.566948 -1.566948,4.120551 0,5.6875 l 12.34375,12.3125 C 52.835752,45.107484 55,39.811063 55,34 55,28.188937 52.835752,22.892516 49.28125,18.84375 Z M 32,37.78125 c -1.022476,0 -2.060276,0.372776 -2.84375,1.15625 L 16.84375,51.28125 C 20.892516,54.835752 26.188937,57 32,57 37.811063,57 43.107484,54.835752 47.15625,51.28125 L 34.84375,38.9375 C 34.060276,38.154026 33.022476,37.78125 32,37.78125 Z"
       style="color:#000000;display:inline;overflow:visible;visibility:visible;opacity:1;fill:#5aa72a;fill-opacity:1;fill-rule:nonzero;stroke:none;stroke-width:2.28571415;marker:none;enable-background:accumulate" />
    <path
       inkscape:connector-curvature="0"
       id="path3007"
       d="M 32,11 C 19.297451,11 9,21.297451 9,34 9,46.702549 19.297451,57 32,57 44.702549,57 55,46.702549 55,34 55,21.297451 44.702549,11 32,11 Z m 0,3 C 43.045695,14 52,22.954305 52,34 52,45.045695 43.045695,54 32,54 20.954305,54 12,45.045695 12,34 12,22.954305 20.954305,14 32,14 Z"
       style="color:#000000;display:inline;overflow:visible;visibility:visible;opacity:1;fill:#8fce6b;fill-opacity:1;fill-rule:nonzero;stroke:none;stroke-width:2;marker:none;enable-background:accumulate" />
  </g>
  <rect
     transform="matrix(1.0670175,0,0,1.0455002,4.3862759,38.498836)"
     style="opacity:0.7;fill:url(#linearGradient4767);fill-opacity:1;stroke:none"
     id="rect4146"
     width="75.965775"
     height="69.024437"
     x="2"
     y="-30"
     rx="3.9569874"
     ry="3.9569881"
     clip-path="url(#clipPath4156-4-1)" />
</svg>

<?xml version="1.0" encoding="UTF-8"?>
<!-- Created with Inkscape (http://www.inkscape.org/) -->
<svg version="1.1" viewBox="0 0 96 96" xmlns="http://www.w3.org/2000/svg" xmlns:cc="http://creativecommons.org/ns#" xmlns:dc="http://purl.org/dc/elements/1.1/" xmlns:rdf="http://www.w3.org/1999/02/22-rdf-syntax-ns#" xmlns:xlink="http://www.w3.org/1999/xlink">
<defs>
<linearGradient id="linearGradient4071" x1="6" x2="90" y1="47" y2="47" gradientTransform="matrix(1.1048 0 0 1.1048 -5.0321 -3.9273)" gradientUnits="userSpaceOnUse">
<stop stop-color="#b2babc" offset="0"/>
<stop stop-color="#fff" offset=".25"/>
<stop stop-color="#96a1a4" offset=".5"/>
<stop stop-color="#fbf9f9" offset=".75"/>
<stop stop-color="#b2b9bc" offset="1"/>
</linearGradient>
<linearGradient id="linearGradient4129" x1="1.5" x2="94.5" y1="88.172" y2="88.172" gradientTransform="matrix(.99792 0 0 .99792 .099997 .10002)" gradientUnits="userSpaceOnUse">
<stop offset="0"/>
<stop stop-opacity=".58824" offset=".1"/>
<stop stop-opacity=".58824" offset=".9"/>
<stop offset="1"/>
</linearGradient>
<radialGradient id="radialGradient7462" cx="13.948" cy="44.893" r="43.199" gradientTransform="matrix(.9731 0 0 .049088 33.928 80.1)" gradientUnits="userSpaceOnUse" xlink:href="#linearGradient3737"/>
<linearGradient id="linearGradient3737">
<stop stop-color="#fff" offset="0"/>
<stop stop-color="#fff" stop-opacity="0" offset="1"/>
</linearGradient>
<radialGradient id="radialGradient7464" cx="13.948" cy="44.893" r="43.199" gradientTransform="matrix(.88648 0 0 .049088 31.579 -90.08)" gradientUnits="userSpaceOnUse" xlink:href="#linearGradient3737"/>
<linearGradient id="linearGradient4767" x1="2.7714" x2="50.528" y1="-28.642" y2="14.514" gradientUnits="userSpaceOnUse" xlink:href="#linearGradient3737"/>
<clipPath id="clipPath4156-4-1">
<path d="m27.046-55.695-14.214 13.321h0.06127l15.653 21.771 10.231-10.546c-0.2169-1.1522-11.311-23.67-11.732-24.546zm-17.399 16.313-14.888 14.062 21.229 17.515 10.385-10.577zm31.491 12.951-9.7413 9.7136 8.9448 12.458 7.7808-7.555zm-49.84 4.3788-13.754 12.982 26.283 13.846 0.06127-0.0617-0.12253-0.0617 9.8332-10.053-22.301-16.652zm38.015 7.4008-9.8025 9.7753 11.579 9.5594 7.6276-7.4008-8.6691-11.009zm20.187 5.674-7.3825 7.2158 6.1878 8.5418 5.8202-6.1365zm-32.195 6.3215-9.5575 9.4977 13.662 7.185 7.9339-7.6784zm23.312 2.3744-7.1068 6.9383 8.3628 6.9074 5.3608-5.674-0.06127-0.0925-0.0919 0.12335-6.4635-8.2026zm-8.7304 8.5418-7.5051 7.3392 10.354 5.4581c1.3975-1.321 5.6751-6.1229 5.8509-6.3215z" fill="#fff" opacity=".6"/>
</clipPath>
</defs>
<metadata>
<rdf:RDF>
<cc:Work rdf:about="">
<dc:format>image/svg+xml</dc:format>
<dc:type rdf:resource="http://purl.org/dc/dcmitype/StillImage"/>
<dc:title/>
</cc:Work>
</rdf:RDF>
</metadata>
<path d="m89.057 0.10002h-82.114c-3.7909 0-6.8428 3.0519-6.8428 6.8429v82.114c0 3.7909 3.0519 6.8429 6.8428 6.8429h82.114c3.7909 0 6.8429-3.0519 6.8429-6.8429v-82.114c0-3.7909-3.0519-6.8429-6.8429-6.8429z" opacity=".15"/>
<path d="m88.416 0.84845h-80.831c-3.7317 0-6.7359 3.0042-6.7359 6.7359v80.831c0 3.7317 3.0042 6.7359 6.7359 6.7359h80.831c3.7317 0 6.7359-3.0042 6.7359-6.7359v-80.831c0-3.7317-3.0042-6.7359-6.7359-6.7359z" opacity=".15"/>
<path d="m87.774 1.5969h-79.548c-3.6725 0-6.629 2.9565-6.629 6.629v79.548c0 3.6725 2.9565 6.629 6.629 6.629h79.548c3.6725 0 6.629-2.9565 6.629-6.629v-79.548c0-3.6725-2.9565-6.629-6.629-6.629z" fill="url(#linearGradient4071)"/>
<path d="m11.318 6.4739c-2.8505 0-5.1135 2.3109-5.1135 5.2219v69.256c1.095 1.7011 2.9627 2.8394 5.1135 2.8394h75.2c2.1508 0 2.4523 0.0363 3.5472-1.6648v-70.431c0-2.911-2.2629-5.2219-5.1135-5.2219z" fill="#bef3be" opacity=".98"/>
<path d="m9.9046 4.8196c-3.1101 0-5.6562 2.5342-5.6562 5.6342v69.134c0 3.1 2.546 5.6342 5.6562 5.6342h76.632c3.1101 0 5.6562-2.5342 5.6562-5.6342v-69.134c0-3.1-2.546-5.6342-5.6562-5.6342zm0 2.3146h76.632c1.8842 0 3.345 1.477 3.345 3.3196v69.134c0 1.8426-1.4609 3.3196-3.345 3.3196h-76.632c-1.8842 0-3.345-1.477-3.345-3.3196v-69.134c0-1.8426 1.4609-3.3196 3.345-3.3196z" color="#000000" fill="#212222" fill-opacity=".92718" style="text-decoration-line:none;text-indent:0;text-transform:none"/>
<path d="m1.5969 81.773v5.9875c0 3.6725 2.9699 6.6424 6.6424 6.6424h79.521c3.6725 0 6.6424-2.9699 6.6424-6.6424v-5.9875c0 3.6725-2.9699 6.6424-6.6424 6.6424h-79.521c-3.6725 0-6.6424-2.9699-6.6424-6.6424z" fill="url(#linearGradient4129)" opacity=".65818"/>
<rect x="5.4638" y="80.183" width="84.074" height="4.2411" rx="0" ry="4.2411" fill="url(#radialGradient7462)" opacity=".55"/>
<rect transform="rotate(90)" x="5.6484" y="-89.997" width="76.59" height="4.2411" rx="0" ry="4.2411" fill="url(#radialGradient7464)" opacity=".669"/>
<g transform="matrix(1.4205 0 0 1.4205 2.5425 -2.2985)">
<path d="m32 11c-5.8111 0-11.107 2.1962-15.156 5.7188l12.312 12.344c1.5669 1.5669 4.1206 1.5669 5.6875 0l12.312-12.344c-4.0488-3.5225-9.3452-5.7188-15.156-5.7188zm-17.281 7.8438c-3.5225 4.0488-5.7188 9.3452-5.7188 15.156s2.1962 11.107 5.7188 15.156l12.344-12.312c1.5669-1.5669 1.5669-4.1206 0-5.6875zm34.562 0-12.344 12.312c-1.5669 1.5669-1.5669 4.1206 0 5.6875l12.344 12.312c3.5545-4.0488 5.7188-9.3452 5.7188-15.156s-2.1642-11.107-5.7188-15.156zm-17.281 18.938c-1.0225 0-2.0603 0.37278-2.8438 1.1562l-12.312 12.344c4.0488 3.5545 9.3452 5.7188 15.156 5.7188s11.107-2.1642 15.156-5.7188l-12.312-12.344c-0.78347-0.78347-1.8213-1.1562-2.8438-1.1562z" color="#000000" fill="#5aa72a"/>
<path d="m32 11c-12.703 0-23 10.297-23 23s10.297 23 23 23 23-10.297 23-23-10.297-23-23-23zm0 3c11.046 0 20 8.9543 20 20s-8.9543 20-20 20-20-8.9543-20-20 8.9543-20 20-20z" color="#000000" fill="#8fce6b"/>
</g>
<rect transform="matrix(1.067 0 0 1.0455 4.3863 38.499)" x="2" y="-30" width="75.966" height="69.024" rx="3.957" ry="3.957" clip-path="url(#clipPath4156-4-1)" fill="url(#linearGradient4767)" opacity=".7"/>
</svg>
